src/gui/emoticons/dog.svg

<svg xmlns="http://www.w3.org/2000/svg" xmlns:xlink="http://www.w3.org/1999/xlink" width="16pt" height="16pt" version="1.1" viewBox="0 0 16 16"><defs><linearGradient id="linear0" x1="64.131" x2="64.131" y1="18.892" y2="120.48" gradientTransform="matrix(0.125,0,0,0.125,0,0)" gradientUnits="userSpaceOnUse"><stop offset="0" style="stop-color:#ffc559;stop-opacity:1"/><stop offset=".999" style="stop-color:#d47500;stop-opacity:1"/></linearGradient><clipPath id="clip1"><path d="M 1 7 L 15 7 L 15 16 L 1 16 Z M 1 7"/></clipPath><clipPath id="clip2"><path d="M 14.53125 8.636719 C 14.53125 12.269531 10.894531 15.152344 8 15.152344 C 5.046875 15.152344 1.46875 12.269531 1.46875 8.636719 C 1.46875 5 3.824219 2.050781 8 2.050781 C 12.175781 2.050781 14.53125 5 14.53125 8.636719 Z M 14.53125 8.636719"/></clipPath><linearGradient id="linear1" x1="64" x2="64" y1="75.89" y2="120.59" gradientTransform="matrix(0.125,0,0,0.125,0,0)" gradientUnits="userSpaceOnUse"><stop offset=".158" style="stop-color:#fff8e1;stop-opacity:1"/><stop offset=".707" style="stop-color:#d8d3bf;stop-opacity:1"/><stop offset="1" style="stop-color:#c9c4b2;stop-opacity:1"/></linearGradient><linearGradient id="linear2" x1="64" x2="64" y1="93.235" y2="75.832" gradientTransform="matrix(0.125,0,0,0.125,0,0)" gradientUnits="userSpaceOnUse"><stop offset="0" style="stop-color:#000;stop-opacity:1"/><stop offset=".355" style="stop-color:#262626;stop-opacity:1"/><stop offset=".837" style="stop-color:#575757;stop-opacity:1"/></linearGradient><clipPath id="clip3"><path d="M 6 12 L 10 12 L 10 16 L 6 16 Z M 6 12"/></clipPath><clipPath id="clip4"><path d="M 9.25 12.828125 C 9.25 13.453125 9.375 15.070312 8 15.070312 C 6.625 15.070312 6.625 13.453125 6.625 12.828125 L 6.625 12.632812 C 6.625 12.007812 7.132812 11.5 7.757812 11.5 L 8.117188 11.5 C 8.742188 11.5 9.25 12.007812 9.25 12.632812 Z M 9.25 12.828125"/></clipPath></defs><g id="surface1"><path style="stroke:none;fill-rule:nonzero;fill:#d3914f;fill-opacity:1" d="M 2.816406 0.828125 C 3.019531 0.828125 3.269531 0.9375 3.558594 1.160156 L 5.0625 2.300781 C 5.0625 2.300781 5.0625 2.300781 5.066406 2.300781 C 5.867188 2.058594 8.015625 1.96875 8.015625 1.96875 C 9.179688 1.972656 10.140625 2.109375 10.929688 2.347656 L 10.933594 2.347656 C 10.933594 2.347656 10.933594 2.347656 10.9375 2.347656 L 12.441406 1.207031 C 12.726562 0.984375 12.976562 0.875 13.179688 0.875 C 13.519531 0.875 13.730469 1.171875 13.753906 1.722656 L 14.070312 5.308594 C 14.3125 6.019531 14.429688 6.816406 14.472656 7.660156 C 14.511719 7.976562 14.53125 8.300781 14.53125 8.632812 C 14.53125 12.269531 10.890625 15.148438 8 15.148438 C 5.042969 15.148438 1.464844 12.269531 1.464844 8.632812 C 1.464844 8.316406 1.484375 8.007812 1.519531 7.703125 C 1.558594 6.824219 1.675781 6 1.925781 5.261719 L 2.242188 1.671875 C 2.269531 1.125 2.476562 0.828125 2.816406 0.828125 M 2.816406 0.457031 C 2.609375 0.457031 1.925781 0.546875 1.871094 1.648438 L 1.5625 5.183594 C 1.328125 5.882812 1.195312 6.699219 1.152344 7.671875 C 1.113281 7.992188 1.097656 8.316406 1.097656 8.632812 C 1.097656 10.425781 1.90625 12.164062 3.371094 13.527344 C 4.714844 14.777344 6.445312 15.519531 8 15.519531 C 11.128906 15.519531 14.902344 12.449219 14.902344 8.632812 C 14.902344 8.296875 14.882812 7.957031 14.84375 7.628906 C 14.796875 6.691406 14.660156 5.90625 14.4375 5.234375 L 14.125 1.699219 C 14.070312 0.589844 13.390625 0.507812 13.183594 0.507812 C 12.886719 0.507812 12.5625 0.644531 12.214844 0.914062 L 10.859375 1.941406 C 10.050781 1.71875 9.09375 1.601562 8.015625 1.601562 L 8 1.601562 C 7.917969 1.605469 6.070312 1.679688 5.144531 1.898438 L 3.78125 0.863281 C 3.4375 0.597656 3.113281 0.457031 2.816406 0.457031 Z M 2.816406 0.457031"/><path style="stroke:none;fill-rule:nonzero;fill:url(#linear0)" d="M 14.085938 5.308594 L 13.773438 1.722656 C 13.730469 0.839844 13.21875 0.613281 12.457031 1.207031 L 10.953125 2.347656 C 10.953125 2.347656 10.949219 2.347656 10.949219 2.347656 C 10.15625 2.105469 9.195312 1.972656 8.03125 1.96875 C 8.03125 1.96875 5.882812 2.058594 5.082031 2.300781 C 5.078125 2.300781 5.078125 2.300781 5.078125 2.300781 L 3.574219 1.160156 C 2.8125 0.566406 2.300781 0.792969 2.257812 1.675781 L 1.945312 5.261719 L 1.945312 5.265625 C 1.640625 6.148438 1.535156 7.160156 1.519531 8.234375 C 1.480469 11.863281 4.378906 14.945312 8 14.972656 L 8 14.980469 C 11.636719 14.96875 14.550781 11.921875 14.511719 8.28125 C 14.5 7.203125 14.390625 6.195312 14.085938 5.308594 Z M 14.085938 5.308594"/><g clip-path="url(#clip1)" clip-rule="nonzero"><g clip-path="url(#clip2)" clip-rule="nonzero"><path style="stroke:none;fill-rule:nonzero;fill:url(#linear1)" d="M 13.621094 7.625 C 12.957031 7.484375 11.820312 7.601562 11.242188 9.453125 C 11.117188 9.855469 10.722656 10.335938 10.328125 10.347656 C 9.539062 10.363281 9.378906 9.398438 7.976562 9.398438 C 6.574219 9.398438 6.46875 10.363281 5.683594 10.347656 C 5.285156 10.335938 4.878906 9.855469 4.753906 9.453125 C 4.175781 7.601562 3.039062 7.484375 2.375 7.625 C -0.460938 8.234375 1.761719 12.449219 2.875 13.640625 C 5.535156 16.484375 10.390625 16.566406 13.132812 13.640625 C 14.246094 12.449219 16.457031 8.234375 13.621094 7.625 Z M 13.621094 7.625"/></g></g><path style="stroke:none;fill-rule:nonzero;fill:#000;fill-opacity:1" d="M 6.25 7.5625 C 6.25 7.042969 5.886719 6.625 5.4375 6.625 C 4.988281 6.625 4.625 7.042969 4.625 7.5625 C 4.625 8.082031 4.988281 8.5 5.4375 8.5 C 5.886719 8.5 6.25 8.082031 6.25 7.5625 Z M 6.25 7.5625"/><path style="stroke:none;fill-rule:nonzero;fill:#000;fill-opacity:1" d="M 11.375 7.5625 C 11.375 7.042969 11.011719 6.625 10.5625 6.625 C 10.113281 6.625 9.75 7.042969 9.75 7.5625 C 9.75 8.082031 10.113281 8.5 10.5625 8.5 C 11.011719 8.5 11.375 8.082031 11.375 7.5625 Z M 11.375 7.5625"/><path style="stroke:none;fill-rule:nonzero;fill:url(#linear2)" d="M 8.035156 11.695312 C 7.433594 11.695312 6.625 11.238281 6.625 10.679688 L 6.625 10.652344 C 6.625 10.09375 7.175781 9.5 7.78125 9.5 L 8.21875 9.5 C 8.824219 9.5 9.375 10.09375 9.375 10.652344 L 9.375 10.667969 C 9.375 11.226562 8.640625 11.695312 8.035156 11.695312 Z M 8.035156 11.695312"/><path style="stroke:none;fill-rule:nonzero;fill:#000;fill-opacity:1" d="M 11.460938 11.265625 C 11.449219 11.242188 11.417969 11.226562 11.363281 11.226562 C 11.207031 11.230469 11.117188 11.359375 11.03125 11.453125 C 10.953125 11.539062 10.878906 11.628906 10.800781 11.714844 C 10.589844 11.945312 10.335938 12.121094 10.039062 12.257812 C 9.394531 12.554688 9.09375 12.453125 9.09375 12.453125 C 8.992188 12.421875 8.882812 12.410156 8.78125 12.371094 C 8.519531 12.269531 8.320312 12.136719 8.015625 12.132812 C 7.824219 12.128906 7.628906 12.175781 7.460938 12.257812 C 7.289062 12.34375 7.117188 12.429688 6.914062 12.457031 C 6.914062 12.457031 6.621094 12.558594 5.980469 12.261719 C 5.734375 12.144531 5.507812 12.007812 5.320312 11.828125 C 5.140625 11.65625 5.003906 11.457031 4.8125 11.296875 C 4.78125 11.269531 4.75 11.246094 4.710938 11.230469 C 4.65625 11.210938 4.578125 11.21875 4.546875 11.265625 C 4.515625 11.316406 4.546875 11.371094 4.574219 11.421875 C 4.917969 12.046875 5.761719 14.203125 8 14.203125 C 10.242188 14.203125 11.070312 12.066406 11.425781 11.417969 C 11.453125 11.367188 11.480469 11.304688 11.460938 11.265625 Z M 11.460938 11.265625"/><g clip-path="url(#clip3)" clip-rule="nonzero"><g clip-path="url(#clip4)" clip-rule="nonzero"><path style="stroke:none;fill-rule:nonzero;fill:#ff8282;fill-opacity:1" d="M 5.820312 13.886719 C 5.820312 13.203125 6.824219 12.46875 8.058594 12.46875 C 9.296875 12.46875 10.300781 13.203125 10.300781 13.886719 C 10.300781 14.570312 9.296875 15.125 8.058594 15.125 C 6.824219 15.125 5.820312 14.570312 5.820312 13.886719 Z M 5.820312 13.886719"/></g></g><path style="stroke:none;fill-rule:nonzero;fill:#fff5b5;fill-opacity:1" d="M 3.1875 1.5 L 4.25 2.363281 C 4.394531 2.480469 4.367188 2.710938 4.195312 2.789062 L 3.089844 3.292969 C 2.921875 3.367188 2.730469 3.242188 2.734375 3.054688 L 2.777344 1.6875 C 2.785156 1.480469 3.027344 1.367188 3.1875 1.5 Z M 3.1875 1.5"/><path style="stroke:none;fill-rule:nonzero;fill:#fff5b5;fill-opacity:1" d="M 12.8125 1.5 L 11.75 2.363281 C 11.605469 2.480469 11.632812 2.710938 11.804688 2.789062 L 12.910156 3.292969 C 13.078125 3.367188 13.269531 3.242188 13.265625 3.054688 L 13.222656 1.6875 C 13.214844 1.480469 12.972656 1.367188 12.8125 1.5 Z M 12.8125 1.5"/></g></svg>

<svg xmlns="http://www.w3.org/2000/svg" width="16pt" height="16pt" viewBox="0 0 16 16"><defs><clipPath id="b"><path d="M1 7h14v9H1Zm0 0"/></clipPath><clipPath id="c"><path d="M14.531 8.637c0 3.633-3.636 6.515-6.531 6.515-2.953 0-6.531-2.882-6.531-6.515C1.469 5 3.824 2.05 8 2.05S14.531 5 14.531 8.637m0 0"/></clipPath><clipPath id="f"><path d="M6 12h4v4H6Zm0 0"/></clipPath><clipPath id="g"><path d="M9.25 12.828c0 .625.125 2.242-1.25 2.242s-1.375-1.617-1.375-2.242v-.195c0-.625.508-1.133 1.133-1.133h.36c.624 0 1.132.508 1.132 1.133Zm0 0"/></clipPath><linearGradient id="a" x1="64.131" x2="64.131" y1="18.892" y2="120.48" gradientTransform="scale(.125)" gradientUnits="userSpaceOnUse"><stop offset="0" style="stop-color:#ffc559;stop-opacity:1"/><stop offset=".999" style="stop-color:#d47500;stop-opacity:1"/></linearGradient><linearGradient id="d" x1="64" x2="64" y1="75.89" y2="120.59" gradientTransform="scale(.125)" gradientUnits="userSpaceOnUse"><stop offset=".158" style="stop-color:#fff8e1;stop-opacity:1"/><stop offset=".707" style="stop-color:#d8d3bf;stop-opacity:1"/><stop offset="1" style="stop-color:#c9c4b2;stop-opacity:1"/></linearGradient><linearGradient id="e" x1="64" x2="64" y1="93.235" y2="75.832" gradientTransform="scale(.125)" gradientUnits="userSpaceOnUse"><stop offset="0" style="stop-color:#000;stop-opacity:1"/><stop offset=".355" style="stop-color:#262626;stop-opacity:1"/><stop offset=".837" style="stop-color:#575757;stop-opacity:1"/></linearGradient></defs><path d="M2.816.828q.308 0 .743.332L5.062 2.3h.004c.801-.241 2.95-.331 2.95-.331 1.164.004 2.125.14 2.914.379h.008l1.503-1.141c.286-.223.536-.332.739-.332.34 0 .55.297.574.848l.316 3.586c.242.71.36 1.507.403 2.351q.058.474.058.973c0 3.637-3.64 6.515-6.531 6.515-2.957 0-6.535-2.878-6.535-6.515q.001-.474.055-.93c.039-.879.156-1.703.406-2.441l.316-3.59c.028-.547.235-.844.574-.844m0-.371c-.207 0-.89.09-.945 1.191l-.308 3.536c-.235.699-.368 1.515-.41 2.488a8 8 0 0 0-.055.96c0 1.794.808 3.532 2.273 4.895C4.715 14.777 6.445 15.52 8 15.52c3.129 0 6.902-3.07 6.902-6.887 0-.336-.02-.676-.058-1.004-.047-.938-.184-1.723-.406-2.395L14.125 1.7C14.07.59 13.391.508 13.184.508q-.446.001-.97.406L10.86 1.941c-.808-.222-1.765-.34-2.843-.34H8c-.082.004-1.93.079-2.855.297L3.78.863C3.437.598 3.113.457 2.816.457m0 0" style="stroke:none;fill-rule:nonzero;fill:#d3914f;fill-opacity:1"/><path d="m14.086 5.309-.313-3.586c-.043-.883-.554-1.11-1.316-.516l-1.504 1.14h-.004c-.793-.242-1.754-.374-2.918-.378 0 0-2.148.09-2.949.332h-.004L3.574 1.16c-.761-.595-1.273-.368-1.316.515l-.313 3.586v.004c-.304.882-.41 1.894-.425 2.968-.04 3.63 2.859 6.711 6.48 6.739v.007c3.637-.011 6.55-3.058 6.512-6.699-.012-1.078-.121-2.086-.426-2.972m0 0" style="stroke:none;fill-rule:nonzero;fill:url(#a)"/><g clip-path="url(#b)"><g clip-path="url(#c)"><path d="M13.621 7.625c-.664-.14-1.8-.023-2.379 1.828-.125.402-.52.883-.914.895-.789.015-.95-.95-2.351-.95-1.403 0-1.508.965-2.293.95-.399-.012-.805-.493-.93-.895-.578-1.851-1.715-1.969-2.379-1.828-2.836.61-.613 4.824.5 6.016 2.66 2.843 7.516 2.925 10.258 0 1.113-1.192 3.324-5.407.488-6.016m0 0" style="stroke:none;fill-rule:nonzero;fill:url(#d)"/></g></g><path d="M6.25 7.563c0-.52-.363-.938-.812-.938s-.813.418-.813.938c0 .519.363.937.813.937s.812-.418.812-.937M11.375 7.563c0-.52-.363-.938-.812-.938s-.813.418-.813.938c0 .519.363.937.813.937s.812-.418.812-.937m0 0" style="stroke:none;fill-rule:nonzero;fill:#000;fill-opacity:1"/><path d="M8.035 11.695c-.601 0-1.41-.457-1.41-1.015v-.028c0-.558.55-1.152 1.156-1.152h.438c.605 0 1.156.594 1.156 1.152v.016c0 .559-.734 1.027-1.34 1.027m0 0" style="stroke:none;fill-rule:nonzero;fill:url(#e)"/><path d="M11.46 11.266c-.01-.024-.042-.04-.097-.04-.156.004-.246.133-.332.227q-.115.131-.23.262c-.211.23-.465.406-.762.543-.644.297-.945.195-.945.195-.102-.031-.211-.043-.313-.082-.261-.101-.46-.234-.765-.238a1.2 1.2 0 0 0-.555.125c-.172.086-.344.172-.547.199 0 0-.293.102-.934-.195a2.5 2.5 0 0 1-.66-.434c-.18-.172-.316-.371-.508-.531a.4.4 0 0 0-.101-.067c-.055-.02-.133-.011-.164.036-.031.05 0 .105.027.156.344.625 1.188 2.781 3.426 2.781 2.242 0 3.07-2.137 3.426-2.785.027-.05.054-.113.035-.152m0 0" style="stroke:none;fill-rule:nonzero;fill:#000;fill-opacity:1"/><g clip-path="url(#f)"><g clip-path="url(#g)"><path d="M5.82 13.887c0-.684 1.004-1.418 2.239-1.418 1.238 0 2.242.734 2.242 1.418s-1.004 1.238-2.242 1.238c-1.235 0-2.239-.555-2.239-1.238m0 0" style="stroke:none;fill-rule:nonzero;fill:#ff8282;fill-opacity:1"/></g></g><path d="m3.188 1.5 1.062.863a.252.252 0 0 1-.055.426l-1.105.504a.254.254 0 0 1-.356-.238l.043-1.368c.008-.207.25-.32.41-.187M12.813 1.5l-1.063.863a.252.252 0 0 0 .055.426l1.105.504c.168.074.36-.05.356-.238l-.043-1.368c-.008-.207-.25-.32-.41-.187m0 0" style="stroke:none;fill-rule:nonzero;fill:#fff5b5;fill-opacity:1"/></svg>
